icons/outline/adjustments-cancel.svg

<!--
category: System
tags: [settings, dismiss, terminate, abort, halt, cease, stop, reject, refuse, deny]
version: "2.10"
unicode: "f7fc"
-->
<svg
  xmlns="http://www.w3.org/2000/svg"
  width="24"
  height="24"
  viewBox="0 0 24 24"
  fill="none"
  stroke="currentColor"
  stroke-width="2"
  stroke-linecap="round"
  stroke-linejoin="round"
>
  <path d="M4 10a2 2 0 1 0 4 0a2 2 0 0 0 -4 0m2 -6v4m0 4v8m7.499 -5.325a2 2 0 1 0 -1.499 3.325m0 -14v10m0 4v2m4 -13a2 2 0 1 0 4 0a2 2 0 0 0 -4 0m2 -3v1m0 4v3m1 7m-3 0a3 3 0 1 0 6 0a3 3 0 1 0 -6 0m1 2l4 -4" />
</svg>

<!--
category: System
tags: [settings, dismiss, terminate, abort, halt, cease, stop, reject, refuse, deny]
version: "2.10"
unicode: "f7fc"
-->
<svg
  xmlns="http://www.w3.org/2000/svg"
  width="24"
  height="24"
  viewBox="0 0 24 24"
  fill="none"
  stroke="currentColor"
  stroke-width="2"
  stroke-linecap="round"
  stroke-linejoin="round"
>
    <path d="M4 10a2 2 0 1 0 4 0a2 2 0 0 0 -4 0M6 4v4M6 12v8M13.499 14.675a2 2 0 1 0 -1.499 3.325M12 4v10M12 18v2M16 7a2 2 0 1 0 4 0a2 2 0 0 0 -4 0M18 4v1M18 9v3M19 19m-3 0a3 3 0 1 0 6 0a3 3 0 1 0 -6 0M17 21l4 -4" />
</svg>
